X:1
T:Title
%%score ( 1 2 ) 3
L:1/8
Q:1/4=120
M:6/4
K:Ab
V:1 treble nm="Strings 1, Treble"
V:2 treble 
V:3 bass nm="Strings 1, Bass"
V:1
 [CE]2 [CF]2 [A,C]2 [CE]2 [CF]2 [CA]2 | [Ec]4 [Ec]2 [Ec]6 | [FA]4 [FB]2 [FA]4 [DF]2 | [CA]6 [CE]6 | %4
w: 1.~Af ter~ the~ shad ows~ have~|passed~ a way,~|From~ my~ life~ for|ev er,~|
 [CE]2 [CF]2 [A,C]2 [CE]2 [CF]2 [CA]2 | [Ec]4 [Ec]2 [Ec]6 | [=DB]4 [Dc]2 [DB]4 [DF]2 | %7
w: When~ I~ have~ en tered~ the~|land~ of~ day,~|Just~ be yond~ the~|
 [DB]6 [DE]6 | [Fd]2 [Ec]2 [DB]2 [DF]4 [DG]2 | [CB]4 [CA]2 [CE]6 | [Fd]2 [Ec]2 [DB]2 [DA]4 [FB]2 | %11
w: riv er;~|Then~ with~ what~ joy~ my~|heart~ will~ thrill,~|Ea ger~ His~ face~ to~|
 [=Ec]12 | [Ec]2 [=D_c]2 [E=c]2 [Fd]4 [Ec]2 | [=Dc]4 [DB]2 [DF]6 | [DB]2 [Dc]2 [DB]2 [DE]4 [DB]2 | %15
w: see;~|Glo ry~ and~ peace~ my~|soul~ will~ fill,~|Glo ry~ e nough~ for~|
 [CA]12 | [CE]2 [CF]2 [CG]2 [CA]2 [CB]2 [Ec]2 | [Ee]4 [Ae]2 [Ae]6 | e6 G6 | c6 z6 | %20
w: me.~|||||
 [CE]2 [CF]2 [CG]2 [CA]2 [CB]2 [Ec]2 | [Ee]4 [Ee]2 [Ee]6 | B6 F6 | B6 z6 | %24
w: ||||
 [Fd]2 [Ec]2 [DB]2 [DF]4 [DG]2 | [CB]4 [CA]2 [CE]6 | [Fd]2 [Ec]2 [DB]2 [DA]4 [FB]2 | [=Ec]12 | %28
w: Then~ with~ what~ joy~ my~|heart~ will~ thrill,~|Ea ger~ His~ face~ to~|see;~|
 [Ec]2 [=D_c]2 [E=c]2 [Fd]4 [Ec]2 | [=Dc]4 [DB]2 [DF]6 | [DB]2 [Dc]2 [DB]2 [DE]4 [DB]2 | [CA]12 |] %32
w: Glo ry~ and~ peace~ my~|soul~ will~ fill,~|Glo ry~ e nough~ for~|me.~|
V:2
 x12 | x12 | x12 | x12 | x12 | x12 | x12 | x12 | x12 | x12 | x12 | x12 | x12 | x12 | x12 | x12 | %16
 x12 | x12 | G2 G2 G2 E2 E2 E2 | E2 E2 E2 [CA]6 | x12 | x12 | =D2 D2 D2 D2 D2 D2 | D2 D2 D2 [DE]6 | %24
 x12 | x12 | x12 | x12 | x12 | x12 | x12 | x12 |] %32
V:3
 [A,,A,]2 [A,,A,]2 [A,,E,]2 [A,,A,]2 [A,,A,]2 [A,,A,]2 | [A,,A,]4 [A,,A,]2 [A,,A,]6 | %2
 [D,A,]4 [D,D]2 [D,D]4 [D,A,]2 | [A,,A,]6 [A,,A,]6 | %4
 [A,,A,]2 [A,,A,]2 [A,,E,]2 [A,,A,]2 [A,,A,]2 [A,,A,]2 | [A,,A,]4 [A,,A,]2 [A,,A,]6 | %6
 [B,,A,]4 [B,,A,]2 [B,,F,]4 [B,,A,]2 | [E,G,]6 [E,G,]6 | %8
 [B,,B,]2 [B,,B,]2 [B,,B,]2 [E,B,]4 [E,B,]2 | [A,,A,]4 [A,,E,]2 [A,,A,]6 | %10
 [B,,F,]2 [B,,F,]2 [B,,F,]2 [D,F,]4 [D,F,]2 | [C,G,]12 | [F,=A,]2 [F,A,]2 [F,A,]2 [F,A,]4 [F,A,]2 | %13
 [B,,B,]4 [B,,F,]2 [B,,A,]6 | [E,G,]2 [E,G,]2 [E,G,]2 [E,G,]4 [E,G,]2 | [A,,A,]12 | %16
 [A,,A,]2 [A,,A,]2 [A,,A,]2 [A,,A,]2 [A,,A,]2 [A,,A,]2 | [A,C]4 [A,C]2 [A,C]6 | %18
 [E,B,]2 [E,B,]2 [E,B,]2 [E,B,]2 [E,B,]2 [E,B,]2 | [A,,A,]2 [A,,A,]2 [A,,A,]2 [A,,E,]6 | %20
 [A,,A,]2 [A,,A,]2 [A,,A,]2 [A,,A,]2 [A,,A,]2 [A,,A,]2 | [A,C]4 [A,C]2 [A,C]6 | %22
 B,2 B,2 B,2 [B,,A,]2 [B,,A,]2 [B,,A,]2 | [E,G,]2 [E,G,]2 [E,G,]2 [E,G,]6 | %24
 [B,,B,]2 [B,,B,]2 [B,,B,]2 [E,B,]4 [E,B,]2 | [A,,A,]4 [A,,E,]2 [A,,A,]6 | %26
 [B,,F,]2 [B,,F,]2 [B,,F,]2 [D,F,]4 [D,F,]2 | [C,G,]12 | [F,=A,]2 [F,A,]2 [F,A,]2 [F,A,]4 [F,A,]2 | %29
 [B,,B,]4 [B,,F,]2 [B,,A,]6 | [E,G,]2 [E,G,]2 [E,G,]2 [E,G,]4 [E,G,]2 | [A,,A,]12 |] %32

